static char *wall_xpm[] = {
"32 32 5 1",
"  c #000000",  // noir
". c #FF0000",  // rouge
"+ c #00FF00",  // vert
"@ c #0000FF",  // bleu
"# c #FFFF00",  // jaune
"................................",
"................................",
"....++++.....@@@@.....####.......",
"....++++.....@@@@.....####.......",
"....++++.....@@@@.....####.......",
"....++++.....@@@@.....####.......",
"....++++.....@@@@.....####.......",
"....++++.....@@@@.....####.......",
"................................",
"................................",
"....####.....++++.....@@@@.......",
"....####.....++++.....@@@@.......",
"....####.....++++.....@@@@.......",
"....####.....++++.....@@@@.......",
"....####.....++++.....@@@@.......",
"....####.....++++.....@@@@.......",
"................................",
"................................",
"....@@@@.....####.....++++.......",
"....@@@@.....####.....++++.......",
"....@@@@.....####.....++++.......",
"....@@@@.....####.....++++.......",
"....@@@@.....####.....++++.......",
"....@@@@.....####.....++++.......",
"................................",
"................................",
"................................",
"................................",
"................................",
"................................",
"................................",
"................................",
"................................",
"................................"
};