/* XPM */
static char *door[] = {
/* columns rows colors chars-per-pixel */
"32 50 187 2 ",
"   c #251200",
".  c #2A1706",
"X  c #2D1902",
"o  c #25160B",
"O  c #2D1C0B",
"+  c #341A03",
"@  c #3B1C01",
"#  c #321E0C",
"$  c #271C13",
"%  c #2D1D13",
"&  c #271E18",
"*  c #301F14",
"=  c #3D2102",
"-  c #32200E",
";  c #3D230B",
":  c #2E2015",
">  c #2C241A",
",  c #25231E",
"<  c #352213",
"1  c #332519",
"2  c #3B2B1D",
"3  c #09343F",
"4  c #262424",
"5  c #292A28",
"6  c #2D2722",
"7  c #302420",
"8  c #342D25",
"9  c #3A2E25",
"0  c #332E29",
"q  c #3E3126",
"w  c #353029",
"e  c #3C322A",
"r  c #2A2D33",
"t  c #323233",
"y  c #3B3536",
"u  c #343538",
"i  c #3F3E3B",
"p  c #3A3B3A",
"a  c #411E01",
"s  c #4B1F00",
"d  c #452204",
"f  c #4D2503",
"g  c #4E2804",
"h  c #44240B",
"j  c #492709",
"k  c #47280C",
"l  c #4C2A0C",
"z  c #512602",
"x  c #542902",
"c  c #5B2D02",
"v  c #512C0B",
"b  c #5C3002",
"n  c #55300C",
"m  c #402612",
"M  c #452A13",
"N  c #4B2D14",
"B  c #472E19",
"V  c #512E15",
"C  c #503219",
"Z  c #602C03",
"A  c #603005",
"S  c #4E3721",
"D  c #473B2C",
"F  c #5C3F28",
"G  c #573B23",
"H  c #453A34",
"J  c #58412D",
"K  c #47443F",
"L  c #48413E",
"P  c #5D4530",
"I  c #574A3E",
"U  c #624025",
"Y  c #634428",
"T  c #694C37",
"R  c #032F40",
"E  c #033442",
"W  c #0F3544",
"Q  c #013C4D",
"!  c #0C3A4A",
"~  c #003F52",
"^  c #263945",
"/  c #014356",
"(  c #03465B",
")  c #034B5F",
"_  c #174153",
"`  c #1B4F5C",
"'  c #21414E",
"]  c #2F404A",
"[  c #3E4147",
"{  c #32414D",
"}  c #3A444F",
"|  c #214759",
" . c #2B4855",
".. c #354353",
"X. c #354C59",
"o. c #3B4C5A",
"O. c #2F515A",
"+. c #32515F",
"@. c #3F545F",
"#. c #044E65",
"$. c #0B4C62",
"%. c #0E4A68",
"&. c #045066",
"*. c #03566D",
"=. c #0B5568",
"-. c #02586F",
";. c #195166",
":. c #14586D",
">. c #025B75",
",. c #015E7A",
"<. c #245060",
"1. c #2D5A6B",
"2. c #305163",
"3. c #3D5263",
"4. c #3C5B6C",
"5. c #385C69",
"6. c #01617C",
"7. c #3E6071",
"8. c #316275",
"9. c #454545",
"0. c #4C4745",
"q. c #4E4C47",
"w. c #434549",
"e. c #464B4E",
"r. c #4C4B4C",
"t. c #564641",
"y. c #524E4C",
"u. c #4F504C",
"i. c #53534E",
"p. c #59524F",
"a. c #434B53",
"s. c #4B4E52",
"d. c #424E5B",
"f. c #4D5153",
"g. c #44525C",
"h. c #4B545D",
"j. c #555352",
"k. c #5A5451",
"l. c #435563",
"z. c #4C5561",
"x. c #4D5965",
"c. c #445D6D",
"v. c #4B5C6A",
"b. c #455A64",
"n. c #535C65",
"m. c #595F66",
"M. c #525E69",
"N. c #4D626E",
"B. c #546265",
"V. c #54626D",
"C. c #5A646D",
"Z. c #456373",
"A. c #4C6270",
"S. c #446578",
"D. c #43697C",
"F. c #556472",
"G. c #5B6572",
"H. c #5C6A74",
"J. c #566B7B",
"K. c #5D6C79",
"L. c #5F7275",
"P. c #5D717D",
"I. c #63696F",
"U. c #626B73",
"Y. c #626E7A",
"T. c #6C6F7C",
"R. c #667077",
"E. c #64717C",
"W. c #6A747D",
"Q. c #6A787C",
"!. c #026080",
"~. c #4B6E82",
"^. c #576E80",
"/. c #5C6F80",
"(. c #5E7382",
"). c #657582",
"_. c #6B7683",
"`. c #667883",
"'. c #6C7A85",
"]. c #6A7689",
"[. c #667989",
"{. c #6D7B8A",
"}. c #717B85",
"|. c #727D8A",
" X c #6D808F",
".X c #748389",
"XX c #728191",
/* pixels */
",.,.,.,.6.,.,.,.,.,.,.!.,.>.*.-.>.-.-.>.,.6.>.,.,.,.6.,.,.,.,.,.",
",.,.,.,.,.,.,.,.,.,.!.*.:.8.D.~.J.D.1.;.) *.>.6.,.,.,.,.,.,.,.,.",
",.,.6.,.,.6.>.6.,.>.$.S.K.].|.}.}.'.|.'.N.E ~ >.,.,.,.,.,.,.,.,.",
",.,.,.,.,.,.6.>.=.1.x.W.|.).).).).'.`.'.C.g.X.E ( :.,.,.,.,.,.,.",
",.,.,.>.>.6.=._ x.XX{.C.'.).[.[.}._.).'.M.}.|.K.' E #.,.!.,.>.,.",
",.,.,.,.>.) 7.).C.F.K.h.H.'.'.{.W.n.V.x.G.'.`.|.}.l.E #.,.>.,.,.",
",.,.,.>.%. .G.|.G.K.E.m.a._.E.Y.} H.].x.'._.`.`._.I.^ W ~ >.,.,.",
"6.,.,.#.Z.|.V.f.B. X{.I.5 > 1 $ o 1 7 u I.|.[.{.M.h..XF.W ( >.,.",
",.6.&.5.|.W.|.z.V._.w.$ . X @ + @ @ + + O 0.Q.F...K.R.Q...3 ) >.",
",.>.<.'.'._._.|.h., X a a @ f d g x f x d . 7 [ E.U.F.M.Y.+.Q #.",
"6.( N.}.}.).].H.% X @ a d f b g c c z x x x g < C.|.`.G.|.H.3 / ",
">.| x.M.E.{._.8 + @ @ x x x c f c c z x z x b f 1 U.'.a.n.g.' Q ",
") J.}.K.N.V.i   d @ g c x x c d x c f x g g c c h e h.g.G.'.).! ",
"` _.W.[.{.n.o + = j g x g z c f c c z x f f c x v @ y. X'.).].+.",
"X.E._._.{.0.. + f g g x z z c f x c f x f g c g x g y {.`.'.E.3.",
"+.B.).].|.9 + + x x x x z x c f x c f c g g c g g b 1 ).{.'.C.b.",
"c.z.z.).C.* + @ c c z c x x c z x c f c x z c z z c # x.E.V.g.H.",
"v.a.V.K.M.* @ a c x z c z x c f c c f c z z c z x Z h m.Y.K.G.V.",
"[.E.H..XQ.< @ a c v z x z z c g x x f c z g c z z c l E.].]. XY.",
"(.'.H.G.B.* @ a c z x c z z c f c x f c c x c x z c M E.].].'.F.",
"K.'.Y.Y.M.% * m V M B N M N N M M M M N N M V M N V 2 K.{.W.'.).",
"(.|.M.Y.).y H 0.p.j.r.p.j.q.j.j.y.k.y.y.j.r.k.y.r.k.L G.}.`.'.Y.",
"l.Y.h.M.V.r t a.r.w.s.r.w.f.q.w.y.9.s.r.w.a.q.9.s.s.u l.M.n.N.z.",
"c.}.`.'.Y., $ 8 8 8 0 9 0 9 8 8 9 8 0 9 8 0 8 0 0 9 8 Y.'.W.`.Y.",
"4.Q.E.).H.: @ @ c f s c f f x d g z d x z s z f s z m Y._.E.`.U.",
"2.K.K.K.m.O @ f c c z c z z c z x x z c c z c z z Z h z.F.M.M.x.",
"D..X'.|.W.< @ d c x v x g x c z z c g c x z c z z c M _.}.H.Y._.",
"+.H.C.H.M.# @ d c x x c z z c z x c z c x g c z z c h n.a.G.n.@.",
"A.E.K.E.C.- @ d c x x c z x c z c x z c x g c z z Z j h.G.z.F.{ ",
"(.}.].|.K.- @ f c x z c z z c z z c j c x g x f g c N W._.G.W.@.",
"(.].).].F.O @ d c x z c z z Z z x x z Z c h I k.I j h g.@.G.h.^ ",
"J.'._.'.E.< @ d c x x c x z c z c x j c z G t.H D S M H.`.W.Q.X.",
"J.Q.).'.U.< @ d c x z c x x c g x c f c f T N s d P B T._.W.'.@.",
"3.C.M.m.h.# @ d c x z c z z x f c c f c f J F l C Y ; g.C.V.M...",
"c.{.).].E.< @ d Z x x c x z c f x c f c g j U J J n M Y..X{.'.).",
"Z.'.'.}.F.# @ d c x z c z g c j x c f v f x c l j x l R.[.)._.Y.",
"Z.{._.{.Y.- @ d c g x c f x c f c c f c f x c z x x M T.[.`.`.T.",
"4.}.].{.E.1 + h l k l l k l v k v v j v j l v j l x M _.{.'.'.).",
"3.E.H.Y.C.t y 9.i.i.r.i.i.q.j.u.q.k.r.r.k.r.i.i.e.j.9.V.M.d.T.F.",
"l.C.V.V.x.r u s.f.e.f.f.e.f.f.a.f.e.f.f.s.s.f.e.g.j.p N.H.U.K.@.",
"_.|.{..XW.5 & q 9 9 e B 0 H 9 9 e 9 e 9 9 e 9 9 e 9 9 `.|.}. XF.",
"v.H.F.G.n.$ X @ g h h l h a g a d f d g d d v d h x ; Y.'.`.'.N.",
"F.'.V.C.I.* @ d c x x b z x c z x c x Z x x c c g c N E.].'.'.A.",
").G.H.K.C.< @ a Z x z c x z c z x c f c x g b x g c M W.E.H.{.F.",
"l.g.G.G.a.* @ d c x x c x z c g x c f c x x c x z x ; M.h.d.H.d.",
"K.|.|.'.E.< @ d c x g c x z c z x c f c x g c z z x M U._.`.`.Y.",
"/.].).'.E.< @ d c x x c x x c z c c f c x z c g z c M U._.T.`.K.",
"/.{.).'.T.< a d c x x c g x c z x c f c x z c z f c ; M.K.H.K.v.",
").]._.[.E.< @ f b x x c x x Z z c c z c x x c x z c N W.].{.{.W.",
"^.U.g.).U.> X ; v j g l j g l j l l f l g d v j g l 2 C.E.U.U.J."
};
